X: 2
T: Gankino
O: Bulgaria
M: 11/8
L: 1/8
Q: "Brzo" 4/8 3/8 4/8=70 "kopanica"
K: Ddor^G
|: "Dm"D2dd d2d dcBA | cBAG GFA G2FE | D2EF FDF G2FA | G2FE EDF "E"E2E2 :|
|: "Dm"D2EF FDF G2FE | D2dd dcB AGFE | D2EF FDF G2FA | G2FE EDF "E"E2E2 :|
K: A
|: "E7"[BG][cA][d2B2] [dB][BG][dB] "A"[c2A2][cA][AE] | "E7"[BG][cA][d2B2] [dB][BG][dB] "A"[c2A2][c2A2] \
| "E7"[BG][cA][d2B2] [dB][BG][dB] "A"[c2A2][cA][AE] | "E"[BG][AF][GE][AF] [B2G2][eG] [B2E2][B2E2] :|
K: Ddor^G
|: "E"ABG2 "Dm"FED "E"E2E2 | "E"ABG2 "Dm"FED "E"E2z2 | "E"ABG2 ABG "E"ABG2 | "E"ABG2 "Dm"FED "E"E2E2 :|
K: D
|: "A7"[ec][fd][g2e2] [ge][ec][ge] "D"[f2d2][fd][dA] | "A7"[ec][fd][g2e2] [ge][ec][ge] "D"[f2d2][f2d2] \
| "A7"[ec][fd][g2e2] [ge][ec][ge] "D"[f2d2][fd][dA] | "A"[ec][dB][cA][dB] "E7"[e2c2][eB] "A"[e2A2][e2A2] :|
